!!!OTL: 613. Am Spinnraedchen.
!!!ARE: Europa, Mitteleuropa, Deutschland
!!!SCT: B0613
!!!TXL: @@DE
!!!YEM: Copyright 1995, estate of Helmut Schaffrath.
**kern	**text
*ICvox	*
*Ivox	*
*clefG2	*
*M2/4	*
*k[f#]	*
*G:	*
=1	=1
!LO:TX:a:t=Munter.	!
{8.dd	Hur-
16cc	-re,
8b	hur-
8dd	-re,
=2	=2
(8ddqq	.
4cc)	hur-
4a}	-re,
=3	=3
{8b	ſchnur-
8g	-re,
8f#	Räd-
8g	-chen,
=4	=4
(16aL	ſchnür-
16g	.
16f#	.
16eJ)	.
8d	-re!
8r}	.
=5	=5
{8g	Tril-
8d	-le,
8a	Rädchen,
8d	.
=6	=6
8.b	lang
16ee	und
4dd}	fein,
=7	=7
{8gg	tril-
16ff#L	-le
16eeJ	.
(8eeqq	.
8dd)	fein
16ccL	ein
16bJ	.
=8	=8
16aL	Fä-
16gJ	.
16f#L	-de-
16eJ	.
4d}	-lein
=9	=9
{8.e	mir
16a	ʒum
8g	Bu-
8f#	-ſen-
=10	=10
4a	-ſchlei-
8g	-er.
8r}	.
==	==
!!!AGN: Lied bei der Arbeit
!!!GTL: Seemanns-, Bergmanns-, Bauern- und Handwerkerlieder
!!!ONB: ESAC (Essen Associative Code) Database: BOEHME
!!!AMT: simple duple
!!!AIN: vox
!!!EED: Helmut Schaffrath
!!!EEV: 1.0
!!Melodie von Weiß. Mildh. Ldb. Nr. 414.
!!@@COMMENT:"Gedicht von Bürger 1775. Ʒuerſt im Voſſ. Muſenalm. 1776, S. 77 mit einer Melodie von Weiß, die im Mildh. 
!!Liederbuch wiederholt iſt."
!!@@END:
!!!Text: G. A. Bürger
!!!URL-scan: https://archive.org/details/BoehmeVtLieder1895/page/n485/mode/2up
!!!ENC: Anna Maria Matuszewska
!!!EEV: 2024/15/07
*-	*-
